packages/opendesign/src/icons/svgs/fill/calendar.svg

<?xml version="1.0" encoding="UTF-8"?>
<svg width="24px" height="24px" viewBox="0 0 24 24" version="1.1" xmlns="http://www.w3.org/2000/svg" xmlns:xlink="http://www.w3.org/1999/xlink">
    <title>calendar</title>
    <g id="calendar" stroke="none" stroke-width="1" fill="none" fill-rule="evenodd">
        <path d="M6.21348227,2.92162162 C6.6000816,2.92162162 6.91348227,3.2350223 6.91348227,3.62162162 C6.91348227,3.97600434 6.65013865,4.26887985 6.30846812,4.31523145 L6.21348227,4.32162162 L3,4.32162162 C2.85798392,4.32162162 2.73901581,4.42030172 2.70792321,4.55283437 L2.7,4.62162162 L2.7,6.97527027 L21.3,6.97527027 L21.3,4.62162162 C21.3,4.47960554 21.2013199,4.36063744 21.0687872,4.32954484 L21,4.32162162 L17.7531807,4.32162162 C17.3665814,4.32162162 17.0531807,4.00822095 17.0531807,3.62162162 C17.0531807,3.26723891 17.3165244,2.97436339 17.6581949,2.9280118 L17.7531807,2.92162162 L21,2.92162162 C21.8894691,2.92162162 22.6193901,3.60472844 22.69376,4.47493911 L22.7,4.62162162 L22.7,20.5 C22.7,21.3894691 22.0168932,22.1193901 21.1466825,22.19376 L21,22.2 L3,22.2 C2.11053088,22.2 1.3806099,21.5168932 1.30624001,20.6466825 L1.3,20.5 L1.3,4.62162162 C1.3,3.7321525 1.98310681,3.00223152 2.85331749,2.92786164 L3,2.92162162 L6.21348227,2.92162162 Z M21.3,8.37527027 L2.7,8.37527027 L2.7,20.5 C2.7,20.6420161 2.7986801,20.7609842 2.93121275,20.7920768 L3,20.8 L21,20.8 C21.1420161,20.8 21.2609842,20.7013199 21.2920768,20.5687872 L21.3,20.5 L21.3,8.37527027 Z M17,15.9 C17.3313708,15.9 17.6,16.1686292 17.6,16.5 C17.6,16.7982338 17.3824104,17.0456468 17.0973231,17.092147 L17,17.1 L7,17.1 C6.66862915,17.1 6.4,16.8313708 6.4,16.5 C6.4,16.2017662 6.61758961,15.9543532 6.90267688,15.907853 L7,15.9 L17,15.9 Z M17,11.9 C17.3313708,11.9 17.6,12.1686292 17.6,12.5 C17.6,12.7982338 17.3824104,13.0456468 17.0973231,13.092147 L17,13.1 L7,13.1 C6.66862915,13.1 6.4,12.8313708 6.4,12.5 C6.4,12.2017662 6.61758961,11.9543532 6.90267688,11.907853 L7,11.9 L17,11.9 Z M8.21621622,1.57027027 C8.57059893,1.57027027 8.86347445,1.83361389 8.90982604,2.17528442 L8.91621622,2.27027027 L8.91621622,4.97297297 C8.91621622,5.3595723 8.60281554,5.67297297 8.21621622,5.67297297 C7.8618335,5.67297297 7.56895799,5.40962935 7.52260639,5.06795883 L7.51621622,4.97297297 L7.51621622,2.27027027 C7.51621622,1.88367095 7.82961689,1.57027027 8.21621622,1.57027027 Z M15.7837838,1.57027027 C16.1381665,1.57027027 16.431042,1.83361389 16.4773936,2.17528442 L16.4837838,2.27027027 L16.4837838,4.97297297 C16.4837838,5.3595723 16.1703831,5.67297297 15.7837838,5.67297297 C15.4294011,5.67297297 15.1365256,5.40962935 15.090174,5.06795883 L15.0837838,4.97297297 L15.0837838,2.27027027 C15.0837838,1.88367095 15.3971845,1.57027027 15.7837838,1.57027027 Z M13.7871307,2.92162162 C14.17373,2.92162162 14.4871307,3.2350223 14.4871307,3.62162162 C14.4871307,3.97600434 14.2237871,4.26887985 13.8821166,4.31523145 L13.7871307,4.32162162 L10.2428704,4.32162162 C9.85627105,4.32162162 9.54287038,4.00822095 9.54287038,3.62162162 C9.54287038,3.26723891 9.806214,2.97436339 10.1478845,2.9280118 L10.2428704,2.92162162 L13.7871307,2.92162162 Z" id="path1" fill="#000000"></path>
    </g>
</svg>

<!-- Generated by IcoMoon.io -->
<svg version="1.1" xmlns="http://www.w3.org/2000/svg" width="24" height="24" viewBox="0 0 24 24">
<title>calendar</title>
<path d="M6.213 2.922c0.387 0 0.7 0.313 0.7 0.7 0 0.354-0.263 0.647-0.605 0.694l-0.095 0.006h-3.213c-0.142 0-0.261 0.099-0.292 0.231l-0.008 0.069v2.354h18.6v-2.354c0-0.142-0.099-0.261-0.231-0.292l-0.069-0.008h-3.247c-0.387 0-0.7-0.313-0.7-0.7 0-0.354 0.263-0.647 0.605-0.694l0.095-0.006h3.247c0.889 0 1.619 0.683 1.694 1.553l0.006 0.147v15.878c0 0.889-0.683 1.619-1.553 1.694l-0.147 0.006h-18c-0.889 0-1.619-0.683-1.694-1.553l-0.006-0.147v-15.878c0-0.889 0.683-1.619 1.553-1.694l0.147-0.006h3.213zM21.3 8.375h-18.6v12.125c0 0.142 0.099 0.261 0.231 0.292l0.069 0.008h18c0.142 0 0.261-0.099 0.292-0.231l0.008-0.069v-12.125zM17 15.9c0.331 0 0.6 0.269 0.6 0.6 0 0.298-0.218 0.546-0.503 0.592l-0.097 0.008h-10c-0.331 0-0.6-0.269-0.6-0.6 0-0.298 0.218-0.546 0.503-0.592l0.097-0.008h10zM17 11.9c0.331 0 0.6 0.269 0.6 0.6 0 0.298-0.218 0.546-0.503 0.592l-0.097 0.008h-10c-0.331 0-0.6-0.269-0.6-0.6 0-0.298 0.218-0.546 0.503-0.592l0.097-0.008h10zM8.216 1.57c0.354 0 0.647 0.263 0.694 0.605l0.006 0.095v2.703c0 0.387-0.313 0.7-0.7 0.7-0.354 0-0.647-0.263-0.694-0.605l-0.006-0.095v-2.703c0-0.387 0.313-0.7 0.7-0.7zM15.784 1.57c0.354 0 0.647 0.263 0.694 0.605l0.006 0.095v2.703c0 0.387-0.313 0.7-0.7 0.7-0.354 0-0.647-0.263-0.694-0.605l-0.006-0.095v-2.703c0-0.387 0.313-0.7 0.7-0.7zM13.787 2.922c0.387 0 0.7 0.313 0.7 0.7 0 0.354-0.263 0.647-0.605 0.694l-0.095 0.006h-3.544c-0.387 0-0.7-0.313-0.7-0.7 0-0.354 0.263-0.647 0.605-0.694l0.095-0.006h3.544z"></path>
</svg>
